web/workspace/public/assets/icons/white/volume-mute.svg

<svg xmlns="http://www.w3.org/2000/svg" width="30" height="30" viewBox="0 0 30 30"><path d="M0 9v12h6l8 7V2L6 9H0zm5 10H2v-8h3v8zm2-8.217l5-4.376v17.186l-5-4.376v-8.434zm23-.383L28.6 9 24 13.6 19.4 9 18 10.4l4.6 4.6-4.6 4.6 1.4 1.4 4.6-4.6 4.6 4.6 1.4-1.4-4.6-4.6 4.6-4.6z" fill="#fff"/></svg>

<?xml version="1.0" encoding="iso-8859-1"?>
<!-- Generator: Adobe Illustrator 14.0.0, SVG Export Plug-In . SVG Version: 6.00 Build 43363)  -->
<!DOCTYPE svg PUBLIC "-//W3C//DTD SVG 1.1//EN" "http://www.w3.org/Graphics/SVG/1.1/DTD/svg11.dtd">
<svg version="1.1" id="Layer_1" xmlns="http://www.w3.org/2000/svg" xmlns:xlink="http://www.w3.org/1999/xlink" x="0px" y="0px"
	 width="30px" height="30px" viewBox="0 0 30 30" style="enable-background:new 0 0 30 30;" xml:space="preserve">
<path style="fill:#fff" d="M0,9v12h6l8,7V2L6,9H0z M5,19H2v-8h3V19z M7,10.783l5-4.376v17.186l-5-4.376V10.783z M30,10.4L28.6,9L24,13.6L19.4,9
	L18,10.4l4.6,4.6L18,19.6l1.4,1.4l4.6-4.6l4.6,4.6l1.4-1.4L25.4,15L30,10.4z"/>
</svg>
